;FLAVOR:Marlin
;TIME:5548
;Filament used: 3.23548m
;Layer height: 0.2
;MINX:120.315
;MINY:82.721
;MINZ:0.3
;MAXX:150.429
;MAXY:125.3
;MAXZ:59.5
;Generated with Cura_SteamEngine 4.2.1
M140 S100
M105
M190 S100
M104 S245
M105
M109 S245
M82 ;absolute extrusion mode
G21 ;metric values
G90 ;absolute positioning
M82 ;set extruder to absolute mode
M107 ;start with the fan off
G28 X0 Y0 ;move X/Y to min endstops
G28 Z0 ;move Z to min endstops
G1 Z15.0 F60 ;move the platform down 15mm
G92 E0 ;zero the extruded length
G1 F200 E3 ;extrude 3mm of feed stock
G92 E0 ;zero the extruded length again
G1 F60
M117 Printing...
G5
M141 S28
G92 E0
G92 E0
G1 F1800 E-2.5
;LAYER_COUNT:297
;LAYER:0
M107
M204 S1000
M205 X18.18 Y18.18
G0 F1440 X121.281 Y85.651 Z0.3
M204 S334
M205 X10 Y10
;TYPE:SKIRT
G1 F1500 E0.04158
G1 F1200 X121.684 Y85.185 E0.06719
G1 X122.144 Y84.776 E0.09278
G1 X122.654 Y84.429 E0.11843
G1 X123.229 Y84.141 E0.14516
G1 X123.334 Y84.097 E0.1499
G1 X123.917 Y83.896 E0.17553
G1 X124.52 Y83.773 E0.20112
G1 X125.135 Y83.728 E0.22676
G1 X125.75 Y83.764 E0.25237
G1 X126.355 Y83.878 E0.27797
G1 X126.727 Y84 E0.29424
G1 X128.036 Y84 E0.34866
G1 X129.49 Y84.002 E0.40911
G1 X129.802 Y83.725 E0.42646
G1 X130.312 Y83.378 E0.45211
G1 X130.862 Y83.101 E0.47771
G1 X131.443 Y82.897 E0.50331
G1 X132.046 Y82.769 E0.52894
G1 X132.723 Y82.721 E0.55715
G1 X133.286 Y82.721 E0.58056
G1 X133.901 Y82.761 E0.60618
G1 X134.138 Y82.8 E0.61617
G1 X145.287 Y82.8 E1.07969
G1 X145.902 Y82.84 E1.10531
G1 X146.23 Y82.895 E1.11914
G1 X146.531 Y82.956 E1.13191
G1 X147.126 Y83.117 E1.15754
G1 X147.695 Y83.354 E1.18316
G1 X148.228 Y83.662 E1.20876
G1 X148.717 Y84.037 E1.23438
G1 X149.288 Y84.632 E1.26866
G1 X149.379 Y84.745 E1.27469
G1 X149.733 Y85.249 E1.3003
G1 X150.019 Y85.794 E1.32589
G1 X150.233 Y86.372 E1.35151
G1 X150.369 Y86.973 E1.37713
G1 X150.429 Y87.724 E1.40845
G1 X150.427 Y108.923 E2.28981
G1 X150.387 Y109.538 E2.31543
G1 X150.202 Y110.368 E2.35078
G1 X150.118 Y110.631 E2.36226
G1 X149.893 Y111.205 E2.38789
G1 X149.595 Y111.744 E2.4135
G1 X149.16 Y112.322 E2.44358
G1 X149.029 Y112.471 E2.45182
G1 X148.593 Y112.907 E2.47746
G1 X148.105 Y113.282 E2.50305
G1 X147.572 Y113.591 E2.52866
G1 X147.003 Y113.828 E2.55429
G1 X146.408 Y113.99 E2.57992
G1 X146.023 Y114.042 E2.59608
G1 X145.66 Y114.217 E2.61283
G1 X145.075 Y114.41 E2.63844
G1 X144.47 Y114.526 E2.66405
G1 X143.883 Y114.562 E2.6885
G1 X136.692 Y114.562 E2.98747
G1 X134.82 Y120.152 E3.23256
G1 X134.587 Y120.723 E3.2582
G1 X134.282 Y121.258 E3.2838
G1 X133.91 Y121.749 E3.30941
G1 X133.856 Y121.804 E3.31262
G1 X133.821 Y121.878 E3.31602
G1 X133.488 Y122.396 E3.34162
G1 X133.091 Y122.867 E3.36723
G1 X132.636 Y123.283 E3.39287
G1 X132.131 Y123.636 E3.41848
G1 X131.585 Y123.921 E3.44409
G1 X131.007 Y124.133 E3.46968
G1 X130.724 Y124.197 E3.48175
G1 X130.438 Y124.345 E3.49514
G1 X129.859 Y124.556 E3.52076
G1 X129.258 Y124.69 E3.54636
G1 X128.644 Y124.746 E3.57199
G1 X128.029 Y124.721 E3.59758
G1 X127.421 Y124.617 E3.62322
G1 X126.834 Y124.435 E3.64877
G1 X126.558 Y124.536 E3.66099
G1 X125.957 Y124.67 E3.68659
G1 X125.344 Y124.725 E3.71218
G1 X124.728 Y124.701 E3.73781
G1 X124.121 Y124.597 E3.76342
G1 X123.532 Y124.415 E3.78905
G1 X122.972 Y124.159 E3.81465
G1 X122.449 Y123.832 E3.84029
G1 X121.974 Y123.441 E3.86587
G1 X121.553 Y122.991 E3.89149
G1 X121.193 Y122.49 E3.91714
G1 X120.902 Y121.947 E3.94275
G1 X120.683 Y121.371 E3.96837
G1 X120.541 Y120.772 E3.99396
G1 X120.474 Y119.977 E4.02713
G1 X120.474 Y119.489 E4.04742
G1 X120.422 Y119.266 E4.05694
G1 X120.358 Y118.492 E4.08923
G1 X120.357 Y116.819 E4.15878
G1 X120.397 Y116.204 E4.18441
G1 X120.473 Y115.849 E4.1995
G1 X120.473 Y115.354 E4.22008
G1 X120.513 Y114.739 E4.2457
G1 X120.632 Y114.135 E4.2713
G1 X120.829 Y113.551 E4.29692
G1 X121.099 Y112.997 E4.32254
G1 X121.439 Y112.483 E4.34817
G1 X121.842 Y112.017 E4.37378
G1 X122.302 Y111.608 E4.39937
G1 X122.432 Y111.519 E4.40592
G1 X122.166 Y111.341 E4.41923
G1 X121.703 Y110.934 E4.44486
G1 X121.297 Y110.471 E4.47046
G1 X120.955 Y109.959 E4.49606
G1 X120.681 Y109.407 E4.52168
G1 X120.481 Y108.824 E4.5473
G1 X120.359 Y108.22 E4.57292
G1 X120.315 Y107.578 E4.59968
G1 X120.315 Y88.522 E5.39193
G1 X120.355 Y87.907 E5.41756
G1 X120.474 Y87.303 E5.44315
G1 X120.671 Y86.719 E5.46877
G1 X120.941 Y86.165 E5.4944
G1 X121.281 Y85.651 E5.52002
M204 S1000
M205 X18.18 Y18.18
G0 F1440 X121.777 Y85.829
M204 S334
M205 X10 Y10
G1 F1200 X122.176 Y85.405 E5.54422
G1 X122.63 Y85.039 E5.56847
G1 X123.129 Y84.739 E5.59267
G1 X123.422 Y84.602 E5.60612
G1 X123.527 Y84.558 E5.61086
G1 X124.079 Y84.37 E5.6351
G1 X124.651 Y84.26 E5.65932
G1 X125.233 Y84.228 E5.68355
G1 X125.814 Y84.277 E5.70779
G1 X126.382 Y84.405 E5.732
G1 X126.636 Y84.5 E5.74327
G1 X128.035 Y84.5 E5.80144
G1 X129.694 Y84.503 E5.87041
G1 X129.834 Y84.354 E5.87891
G1 X130.288 Y83.988 E5.90315
G1 X130.787 Y83.688 E5.92736
G1 X131.323 Y83.458 E5.95161
G1 X131.885 Y83.304 E5.97584
G1 X132.723 Y83.221 E6.01085
G1 X133.286 Y83.221 E6.03425
G1 X134.093 Y83.3 E6.06797
G1 X145.287 Y83.3 E6.53336
G1 X146.131 Y83.385 E6.56862
G1 X146.432 Y83.446 E6.58139
G1 X146.994 Y83.6 E6.60562
G1 X147.529 Y83.83 E6.62983
G1 X148.028 Y84.131 E6.65406
G1 X148.481 Y84.498 E6.6783
G1 X148.898 Y84.945 E6.70371
G1 X148.989 Y85.058 E6.70974
G1 X149.323 Y85.536 E6.73399
G1 X149.588 Y86.055 E6.75822
G1 X149.779 Y86.606 E6.78246
G1 X149.894 Y87.177 E6.80668
G1 X149.929 Y87.724 E6.82947
G1 X149.927 Y108.923 E7.71082
G1 X149.887 Y109.505 E7.73507
G1 X149.726 Y110.216 E7.76538
G1 X149.642 Y110.479 E7.77686
G1 X149.427 Y111.021 E7.8011
G1 X149.14 Y111.528 E7.82532
G1 X148.785 Y111.992 E7.84961
G1 X148.654 Y112.141 E7.85786
G1 X148.24 Y112.551 E7.88208
G1 X147.774 Y112.901 E7.90631
G1 X147.264 Y113.184 E7.93056
G1 X146.721 Y113.394 E7.95477
G1 X146.154 Y113.528 E7.97899
G1 X145.913 Y113.544 E7.98903
G1 X145.414 Y113.777 E8.01193
G1 X144.857 Y113.949 E8.03616
G1 X144.282 Y114.043 E8.06039
G1 X143.883 Y114.062 E8.07699
G1 X136.332 Y114.062 E8.39093
G1 X134.346 Y119.993 E8.65097
G1 X134.124 Y120.532 E8.6752
G1 X133.83 Y121.035 E8.69943
G1 X133.469 Y121.493 E8.72367
G1 X133.432 Y121.527 E8.72576
G1 X133.353 Y121.69 E8.73329
G1 X133.029 Y122.175 E8.75754
G1 X132.642 Y122.61 E8.78175
G1 X132.199 Y122.989 E8.80598
G1 X131.708 Y123.303 E8.83022
G1 X131.179 Y123.548 E8.85445
G1 X130.621 Y123.717 E8.87869
G1 X130.538 Y123.73 E8.88219
G1 X130.179 Y123.912 E8.89892
G1 X129.628 Y124.102 E8.92315
G1 X129.056 Y124.214 E8.94738
G1 X128.474 Y124.247 E8.97162
G1 X127.893 Y124.2 E8.99585
G1 X127.324 Y124.074 E9.02008
G1 X126.85 Y123.898 E9.0411
G1 X126.388 Y124.065 E9.06153
G1 X125.818 Y124.185 E9.08575
G1 X125.236 Y124.227 E9.11
G1 X124.655 Y124.189 E9.13421
G1 X124.084 Y124.071 E9.15845
G1 X123.535 Y123.877 E9.18266
G1 X123.017 Y123.609 E9.20691
G1 X122.541 Y123.273 E9.23113
G1 X122.115 Y122.875 E9.25537
G1 X121.748 Y122.423 E9.27958
G1 X121.446 Y121.924 E9.30383
G1 X121.215 Y121.389 E9.32805
G1 X121.06 Y120.827 E9.35229
G1 X120.974 Y119.977 E9.38781
G1 X120.974 Y119.433 E9.41043
G1 X120.91 Y119.153 E9.42237
G1 X120.858 Y118.492 E9.44993
G1 X120.857 Y116.819 E9.51949
G1 X120.897 Y116.237 E9.54374
G1 X120.973 Y115.888 E9.55859
G1 X120.973 Y115.354 E9.58079
G1 X121.013 Y114.773 E9.60501
G1 X121.132 Y114.202 E9.62926
G1 X121.328 Y113.653 E9.65349
G1 X121.597 Y113.137 E9.67768
G1 X121.935 Y112.661 E9.70196
G1 X122.334 Y112.237 E9.72616
G1 X122.788 Y111.871 E9.75041
G1 X123.287 Y111.571 E9.77461
G1 X123.44 Y111.505 E9.78154
G1 X123.422 Y111.498 E9.78234
G1 X122.902 Y111.236 E9.80655
G1 X122.422 Y110.906 E9.83077
G1 X121.991 Y110.513 E9.85502
G1 X121.619 Y110.065 E9.87923
G1 X121.311 Y109.57 E9.90347
G1 X121.074 Y109.038 E9.92768
G1 X120.911 Y108.478 E9.95193
G1 X120.827 Y107.901 E9.97617
G1 X120.815 Y107.578 E9.98961
G1 X120.815 Y88.522 E10.78187
G1 X120.855 Y87.941 E10.80608
G1 X120.974 Y87.37 E10.83033
G1 X121.17 Y86.821 E10.85456
G1 X121.439 Y86.305 E10.87876
G1 X121.777 Y85.829 E10.90303
M204 S1000
M205 X18.18 Y18.18
G0 F1440 X121.937 Y86.453
M204 S334
M205 X10 Y10
G1 F1200 X122.272 Y86.02 E10.92579
G1 X122.666 Y85.64 E10.94855
G1 X123.111 Y85.321 E10.97131
G1 X123.616 Y85.063 E10.99489
G1 X123.721 Y85.019 E10.99962
G1 X124.24 Y84.845 E11.02238
G1 X124.778 Y84.749 E11.0451
G1 X125.325 Y84.731 E11.06785
G1 X125.869 Y84.794 E11.09062
G1 X126.398 Y84.935 E11.11338
G1 X126.549 Y85 E11.12022
G1 X128.034 Y85 E11.18196
G1 X129.904 Y85.003 E11.2597
G1 X129.93 Y84.969 E11.26148
G1 X130.324 Y84.589 E11.28424
G1 X130.769 Y84.27 E11.307
G1 X131.256 Y84.02 E11.32976
G1 X131.774 Y83.843 E11.35252
G1 X132.312 Y83.744 E11.37526
G1 X132.723 Y83.721 E11.39238
G1 X133.286 Y83.721 E11.41578
G1 X134.016 Y83.793 E11.44628
G1 X134.051 Y83.8 E11.44776
G1 X145.287 Y83.8 E11.9149
G1 X146.032 Y83.875 E11.94603
G1 X146.333 Y83.936 E11.9588
G1 X146.86 Y84.083 E11.98155
G1 X147.36 Y84.306 E12.00431
G1 X147.822 Y84.599 E12.02705
G1 X148.237 Y84.956 E12.04981
G1 X148.509 Y85.259 E12.06674
G1 X148.6 Y85.372 E12.07277
G1 X148.911 Y85.822 E12.09552
G1 X149.153 Y86.313 E12.11827
G1 X149.322 Y86.834 E12.14105
G1 X149.413 Y87.374 E12.16381
G1 X149.429 Y87.724 E12.17838
G1 X149.427 Y108.923 E13.05973
G1 X149.387 Y109.469 E13.08249
G1 X149.249 Y110.064 E13.10789
G1 X149.165 Y110.327 E13.11936
G1 X148.961 Y110.835 E13.14212
G1 X148.685 Y111.308 E13.16489
G1 X148.409 Y111.662 E13.18355
G1 X148.278 Y111.811 E13.1918
G1 X147.888 Y112.195 E13.21456
G1 X147.446 Y112.517 E13.23729
G1 X146.961 Y112.772 E13.26007
G1 X146.445 Y112.954 E13.28282
G1 X145.908 Y113.058 E13.30556
G1 X145.738 Y113.065 E13.31264
G1 X145.671 Y113.108 E13.31595
G1 X145.172 Y113.334 E13.33872
G1 X144.645 Y113.484 E13.3615
G1 X143.883 Y113.562 E13.39335
G1 X136.113 Y113.562 E13.71639
G1 X135.926 Y113.701 E13.72607
G1 X133.872 Y119.835 E13.99501
G1 X133.661 Y120.34 E14.01777
G1 X133.378 Y120.809 E14.04054
G1 X133.031 Y121.231 E14.06326
G1 X133.011 Y121.249 E14.06437
G1 X132.885 Y121.499 E14.07601
G1 X132.571 Y121.947 E14.09876
G1 X132.195 Y122.345 E14.12152
G1 X131.765 Y122.684 E14.14429
G1 X131.29 Y122.956 E14.16704
G1 X130.781 Y123.156 E14.18978
G1 X130.396 Y123.246 E14.20622
G1 X129.923 Y123.477 E14.2281
G1 X129.402 Y123.643 E14.25084
G1 X128.861 Y123.732 E14.27363
G1 X128.314 Y123.741 E14.29638
G1 X127.771 Y123.67 E14.31914
G1 X127.245 Y123.521 E14.34187
G1 X126.866 Y123.351 E14.35914
G1 X126.734 Y123.409 E14.36514
G1 X126.219 Y123.593 E14.38787
G1 X125.682 Y123.699 E14.41063
G1 X125.135 Y123.726 E14.4334
G1 X124.59 Y123.673 E14.45616
G1 X124.059 Y123.541 E14.47891
G1 X123.553 Y123.334 E14.50164
G1 X123.082 Y123.055 E14.5244
G1 X122.656 Y122.71 E14.54719
G1 X122.286 Y122.307 E14.56994
G1 X121.978 Y121.855 E14.59268
G1 X121.739 Y121.362 E14.61546
G1 X121.575 Y120.84 E14.6382
G1 X121.488 Y120.3 E14.66094
G1 X121.474 Y119.977 E14.67439
G1 X121.474 Y119.376 E14.69937
G1 X121.399 Y119.042 E14.7136
G1 X121.358 Y118.491 E14.73658
G1 X121.357 Y116.818 E14.80613
G1 X121.397 Y116.272 E14.82889
G1 X121.473 Y115.931 E14.84342
G1 X121.473 Y115.354 E14.86741
G1 X121.513 Y114.808 E14.89017
G1 X121.632 Y114.274 E14.91291
G1 X121.827 Y113.763 E14.93565
G1 X122.095 Y113.285 E14.95843
G1 X122.43 Y112.852 E14.9812
G1 X122.824 Y112.472 E15.00395
G1 X123.269 Y112.153 E15.02672
G1 X123.756 Y111.903 E15.04948
G1 X124.274 Y111.726 E15.07223
G1 X124.812 Y111.627 E15.09498
G1 X125.359 Y111.606 E15.11774
G1 X125.903 Y111.666 E15.14049
G1 X126.432 Y111.804 E15.16322
G1 X126.933 Y112.016 E15.18584
G1 X127.329 Y112.219 E15.20434
G1 X127.873 Y111.945 E15.22966
G1 X128.165 Y111.1 E15.26683
G1 X126.555 Y111.1 E15.33377
G1 X126.452 Y111.146 E15.33846
G1 X125.926 Y111.295 E15.36119
G1 X125.383 Y111.366 E15.38395
G1 X124.836 Y111.357 E15.4067
G1 X124.295 Y111.269 E15.42949
G1 X123.721 Y111.081 E15.4546
G1 X123.616 Y111.037 E15.45933
G1 X123.128 Y110.789 E15.48209
G1 X122.681 Y110.473 E15.50485
G1 X122.285 Y110.095 E15.52761
G1 X121.948 Y109.663 E15.55039
G1 X121.678 Y109.187 E15.57314
G1 X121.48 Y108.677 E15.59588
G1 X121.358 Y108.143 E15.61866
G1 X121.315 Y107.578 E15.64221
G1 X121.315 Y88.522 E16.43447
G1 X121.355 Y87.976 E16.45723
G1 X121.474 Y87.442 E16.47998
G1 X121.669 Y86.931 E16.50272
G1 X121.937 Y86.453 E16.5255
M204 S1000
M205 X18.18 Y18.18
G0 F1440 X122.435 Y86.613
M204 S334
M205 X10 Y10
G1 F1200 X122.765 Y86.226 E16.54665
G1 X123.152 Y85.894 E16.56784
G1 X123.809 Y85.525 E16.59917
G1 X123.914 Y85.481 E16.60391
G1 X124.398 Y85.321 E16.6251
G1 X124.901 Y85.239 E16.64629
G1 X125.41 Y85.237 E16.66745
G1 X125.914 Y85.314 E16.68865
G1 X126.399 Y85.469 E16.70981
G1 X126.461 Y85.5 E16.7127
G1 X128.033 Y85.5 E16.77805
G1 X130.143 Y85.504 E16.86578
G1 X130.423 Y85.175 E16.88374
G1 X130.81 Y84.843 E16.90494
G1 X131.245 Y84.577 E16.92614
G1 X131.715 Y84.381 E16.94731
G1 X132.21 Y84.262 E16.96847
G1 X132.723 Y84.221 E16.98987
G1 X133.286 Y84.221 E17.01328
G1 X133.919 Y84.283 E17.03972
G1 X134.005 Y84.3 E17.04336
G1 X145.287 Y84.3 E17.51241
G1 X145.933 Y84.365 E17.53941
G1 X146.234 Y84.426 E17.55218
G1 X146.723 Y84.566 E17.57332
G1 X147.185 Y84.781 E17.59451
G1 X147.608 Y85.065 E17.61569
G1 X148.119 Y85.573 E17.64565
G1 X148.21 Y85.686 E17.65168
G1 X148.498 Y86.106 E17.67285
G1 X148.716 Y86.567 E17.69405
G1 X148.86 Y87.056 E17.71525
G1 X148.929 Y87.724 E17.74317
G1 X148.927 Y108.923 E18.62452
G1 X148.887 Y109.431 E18.6457
G1 X148.773 Y109.912 E18.66626
G1 X148.689 Y110.175 E18.67773
G1 X148.496 Y110.647 E18.69894
G1 X148.232 Y111.082 E18.72009
G1 X148.034 Y111.332 E18.73335
G1 X147.903 Y111.481 E18.7416
G1 X147.537 Y111.836 E18.7628
G1 X147.121 Y112.13 E18.78397
G1 X146.664 Y112.355 E18.80515
G1 X146.177 Y112.505 E18.82634
G1 X145.673 Y112.578 E18.84751
G1 X145.569 Y112.58 E18.85184
G1 X145.401 Y112.686 E18.86009
G1 X144.934 Y112.888 E18.88125
G1 X144.44 Y113.014 E18.90244
G1 X143.883 Y113.062 E18.92569
G1 X135.948 Y113.062 E19.25559
G1 X135.501 Y113.394 E19.27874
G1 X133.398 Y119.676 E19.55416
G1 X133.199 Y120.145 E19.57534
G1 X132.929 Y120.577 E19.59652
G1 X132.602 Y120.953 E19.61724
G1 X132.419 Y121.303 E19.63366
G1 X132.116 Y121.712 E19.65482
G1 X131.752 Y122.068 E19.67599
G1 X131.337 Y122.364 E19.69718
G1 X130.88 Y122.591 E19.71839
G1 X130.394 Y122.743 E19.73956
G1 X130.208 Y122.771 E19.74738
G1 X130.132 Y122.822 E19.75119
G1 X129.671 Y123.039 E19.77237
G1 X129.182 Y123.18 E19.79353
G1 X128.676 Y123.244 E19.81474
G1 X128.167 Y123.227 E19.83591
G1 X127.666 Y123.131 E19.85712
G1 X126.974 Y122.853 E19.88812
G1 X126.877 Y122.8 E19.89272
G1 X126.533 Y122.952 E19.90835
G1 X126.052 Y123.12 E19.92954
G1 X125.551 Y123.211 E19.95071
G1 X125.041 Y123.222 E19.97191
G1 X124.536 Y123.153 E19.9931
G1 X124.048 Y123.007 E20.01428
G1 X123.589 Y122.786 E20.03546
G1 X123.17 Y122.496 E20.05665
G1 X122.802 Y122.144 E20.07782
G1 X122.493 Y121.739 E20.099
G1 X122.251 Y121.29 E20.1202
G1 X122.082 Y120.81 E20.14136
G1 X121.991 Y120.308 E20.16257
G1 X121.974 Y119.977 E20.17635
G1 X121.974 Y119.321 E20.20362
G1 X121.889 Y118.933 E20.22014
G1 X121.858 Y118.491 E20.23856
G1 X121.857 Y116.818 E20.30811
G1 X121.897 Y116.31 E20.3293
G1 X121.973 Y115.979 E20.34342
G1 X121.973 Y115.354 E20.3694
G1 X122.013 Y114.846 E20.39059
G1 X122.132 Y114.351 E20.41176
G1 X122.327 Y113.88 E20.43295
G1 X122.593 Y113.445 E20.45415
G1 X122.923 Y113.058 E20.47529
G1 X123.31 Y112.726 E20.49649
G1 X123.745 Y112.46 E20.51769
G1 X124.215 Y112.264 E20.53886
G1 X124.71 Y112.145 E20.56003
G1 X125.218 Y112.104 E20.58122
G1 X125.726 Y112.143 E20.6024
G1 X126.222 Y112.261 E20.6236
G1 X126.705 Y112.461 E20.64533
G1 X127.322 Y112.777 E20.67415
G1 X127.333 Y112.776 E20.67461
G1 X128.28 Y112.299 E20.71869
G1 X128.852 Y110.646 E20.79142
G1 X128.86 Y110.613 E20.79283
G1 X128.86 Y110.6 E20.79337
G1 X126.448 Y110.6 E20.89365
G1 X126.181 Y110.711 E20.90567
G1 X125.686 Y110.831 E20.92684
G1 X125.178 Y110.872 E20.94803
G1 X124.67 Y110.833 E20.96922
G1 X124.175 Y110.716 E20.99036
G1 X123.914 Y110.619 E21.00194
G1 X123.809 Y110.575 E21.00667
G1 X123.356 Y110.342 E21.02785
G1 X122.945 Y110.041 E21.04903
G1 X122.586 Y109.68 E21.0702
G1 X122.288 Y109.266 E21.09141
